icon/button-down-active.svg

<svg xmlns="http://www.w3.org/2000/svg" width="16" height="17" fill="none"><path fill="gray" fill-rule="evenodd" d="M0 0h16v17H0zm1 16h14V1H1z" clip-rule="evenodd" style="fill:#191919;fill-opacity:1"/><path fill="silver" d="M1 1h14v15H1z" style="fill:#2b2b2b;fill-opacity:1"/><path fill="#000" fill-rule="evenodd" d="M12 7H5v1h1v1h1v1h1v1h1v-1h1V9h1V8h1z" clip-rule="evenodd" style="fill:#fff;fill-opacity:1"/></svg>

<?xml version="1.0" encoding="UTF-8" standalone="no"?>
<svg
   width="16"
   height="17"
   viewBox="0 0 16 17"
   fill="none"
   version="1.1"
   id="svg2"
   sodipodi:docname="button-down-active.svg"
   inkscape:version="1.4.2 (ebf0e940d0, 2025-05-08)"
   xmlns:inkscape="http://www.inkscape.org/namespaces/inkscape"
   xmlns:sodipodi="http://sodipodi.sourceforge.net/DTD/sodipodi-0.dtd"
   xmlns="http://www.w3.org/2000/svg"
   xmlns:svg="http://www.w3.org/2000/svg">
  <defs
     id="defs2" />
  <sodipodi:namedview
     id="namedview2"
     pagecolor="#ffffff"
     bordercolor="#000000"
     borderopacity="0.25"
     inkscape:showpageshadow="2"
     inkscape:pageopacity="0.0"
     inkscape:pagecheckerboard="0"
     inkscape:deskcolor="#d1d1d1"
     inkscape:zoom="47.058824"
     inkscape:cx="7.99"
     inkscape:cy="8.5"
     inkscape:window-width="1920"
     inkscape:window-height="1011"
     inkscape:window-x="0"
     inkscape:window-y="0"
     inkscape:window-maximized="1"
     inkscape:current-layer="svg2" />
  <path
     fill-rule="evenodd"
     clip-rule="evenodd"
     d="M0 0H15H16V17H15H0V16V1V0ZM1 16H15V1H1V16Z"
     fill="#808080"
     id="path1"
     style="fill:#191919;fill-opacity:1" />
  <rect
     x="1"
     y="1"
     width="14"
     height="15"
     fill="#C0C0C0"
     id="rect1"
     style="fill:#2b2b2b;fill-opacity:1" />
  <path
     fill-rule="evenodd"
     clip-rule="evenodd"
     d="M12 7H5V8H6V9H7V10H8V11H9V10H10V9H11V8H12V7Z"
     fill="black"
     id="path2"
     style="fill:#ffffff;fill-opacity:1" />
</svg>
